X:481
T:This Train is Bound for Glory
K:G
M:4/4
L:1/8
G2 G4 B2 | A2 G2 E2 D2 | G2 G6 | -G6 z2 |
d2 d4 g2 | e2 d2 B2 d2 | d2 d6 | -d6 z2 |
d2 d4 g2 | e2 d2 B2 G2 | A2 A2 G2 AA | B2 G2 E2 D2 |
G2 G4 B2 | A2 G2 E2 D2 | G2 G6 | -G8 ||
